src/icons/eslint.svg

<svg
  xml:space="preserve"
  xmlns="http://www.w3.org/2000/svg"
  viewBox="0 0 300 300"
>
  <path
    d="m97.478 120.86 50.098-28.924a4.052 4.052 0 0 1 4.053 0l50.1 28.924a4.055 4.055 0 0 1 2.026 3.51v57.848a4.06 4.06 0 0 1-2.027 3.51l-50.099 28.924a4.052 4.052 0 0 1-4.053 0l-50.098-28.924a4.055 4.055 0 0 1-2.026-3.51V124.37a4.057 4.057 0 0 1 2.026-3.51"
    fill="#3f51b5"
  />
  <path
    d="M279.863 147.21 220.005 43.077c-2.174-3.765-6.19-6.542-10.538-6.542H89.745c-4.349 0-8.366 2.777-10.54 6.542L19.347 146.983c-2.174 3.766-2.174 8.52 0 12.285L79.205 262.55c2.174 3.765 6.191 5.69 10.54 5.69h119.722c4.347 0 8.365-1.867 10.538-5.633l59.858-103.45c2.176-3.764 2.176-8.18 0-11.944m-49.565 50.075c0 1.53-.921 2.947-2.249 3.713l-76.245 43.99a4.338 4.338 0 0 1-4.314 0l-76.304-43.99c-1.326-.766-2.254-2.181-2.254-3.713v-87.981c0-1.532.914-2.947 2.241-3.714l76.243-43.99a4.33 4.33 0 0 1 4.311 0l76.31 43.99c1.327.767 2.261 2.182 2.261 3.714z"
    fill="#3f51b5"
  />
</svg>

<svg viewBox="0 0 300 300" xmlns="http://www.w3.org/2000/svg">
  <path
    d="M97.478 120.86L147.576 91.936C148.192 91.5802 148.891 91.3928 149.602 91.3928C150.314 91.3928 151.013 91.5802 151.629 91.936L201.729 120.86C202.345 121.216 202.856 121.728 203.212 122.344C203.568 122.96 203.755 123.659 203.755 124.37V182.218C203.754 182.929 203.567 183.628 203.211 184.244C202.855 184.86 202.344 185.372 201.728 185.728L151.629 214.652C151.013 215.008 150.314 215.195 149.602 215.195C148.891 215.195 148.192 215.008 147.576 214.652L97.478 185.728C96.8621 185.372 96.3507 184.86 95.995 184.244C95.6394 183.628 95.4522 182.929 95.452 182.218V124.37C95.4524 123.659 95.6397 122.96 95.9953 122.344C96.3509 121.728 96.8622 121.216 97.478 120.86Z"
    fill="#3F51B5"
  />
  <path
    d="M279.863 147.21L220.005 43.077C217.831 39.312 213.815 36.535 209.467 36.535H89.745C85.396 36.535 81.379 39.312 79.205 43.077L19.347 146.983C17.173 150.749 17.173 155.503 19.347 159.268L79.205 262.55C81.379 266.315 85.396 268.24 89.745 268.24H209.467C213.814 268.24 217.832 266.373 220.005 262.607L279.863 159.157C282.039 155.393 282.039 150.977 279.863 147.213M230.298 197.288C230.298 198.818 229.377 200.235 228.049 201.001L151.804 244.991C151.147 245.367 150.404 245.565 149.647 245.565C148.89 245.565 148.147 245.367 147.49 244.991L71.186 201.001C69.86 200.235 68.932 198.82 68.932 197.288V109.307C68.932 107.775 69.846 106.36 71.173 105.593L147.416 61.603C148.072 61.2265 148.815 61.0284 149.571 61.0284C150.328 61.0284 151.071 61.2265 151.727 61.603L228.037 105.593C229.364 106.36 230.298 107.775 230.298 109.307V197.288Z"
    fill="#3F51B5"
  />
</svg>
